X:401
T:Humours of Last Night (4-part version of Merrily kiss the quaker)
B:Petrie
R:Jig
O:Ireland
M:6/8
%%ID:0000092e
Z:Richard Robinson
F: http://www.leeds.ac.uk/music/Info/RRTuneBk/gettune/0000092e.abc
F:http://www.leeds.ac.uk/music/Info/RRTuneBk/gettune/0000092e.abc 2005-03-20 08:36:56 UT
K:G
D/E/ |\
GAB D2E | c2A BGE | GAB D2E | A3 AGE |\
GAB D2E | c2A BGE | GAB D2E | G3 G2 ||
c |\
BcB Bcd | edc BAG | BcB Bcd | e3 g3 |\
BcB Bcd | ege dBG | GAB D2E | G3 G2 ||
c |\
BGG AGG | BGG AGE | GAB D2E | A3 A2 c |\
BGG AGG | BGG AGE | GAB D2E | G3 G2 ||
(3d/e/f/ |\
g2 aga | bge dcB | g3 gab | a3 age | \
gbg faf | ege dB>G | GAB D2E | G3 G2 |]
Contact us
suse.folkinfo.org
